X:99
M:3/4
L:1/4
K:F
F2 F | (F E) F | (G A) G | F3 | A2 A | (A G) A | (c B) A | A G2 | F2 F | (F E) F | (G A) G | F3 | A2 A | .(A G) A | (c B) A | A G2 | G2 A/c/ | .(B A) G | A2 B/d/ | c3 | !sintro!d2 d | (c B) A | (B A) G | F3 !eintro!|]
